svg/fluentui-system-icons/ic_fluent_xbox_controller_32_regular.svg

<svg width="32" height="32" viewBox="0 0 32 32" fill="none" xmlns="http://www.w3.org/2000/svg">
<path d="M12.9296 6.362C12.1874 5.98975 11.3718 5.93096 10.6296 6.07281L8.97729 6.38856C7.7699 6.6193 6.73123 7.39578 6.17161 8.49313C4.25765 12.2462 2.81068 15.3196 2.25219 17.9409C1.67636 20.6436 2.02708 22.958 3.75986 25.0653C4.91027 26.4644 6.88687 26.1817 7.91467 25.0151C8.70566 24.1173 9.60741 23.0762 10.4877 22.0523C11.0615 21.3848 11.8957 21.0005 12.7725 21.0005H19.2218C20.0985 21.0005 20.9327 21.3848 21.5065 22.0523C22.3868 23.0762 23.2885 24.1173 24.0795 25.0151C25.1073 26.1817 27.0839 26.4644 28.2343 25.0653C29.9671 22.958 30.3178 20.6436 29.742 17.9409C29.1835 15.3196 27.7366 12.2462 25.8226 8.49313C25.263 7.39578 24.2243 6.6193 23.0169 6.38856L21.3646 6.07281C20.6224 5.93096 19.8068 5.98975 19.0646 6.362C18.9195 6.43474 18.7719 6.51136 18.623 6.59075C18.1247 6.85642 17.5942 7.00055 17.0712 7.00055H14.923C14.4 7.00055 13.8695 6.85642 13.3712 6.59075C13.2223 6.51136 13.0747 6.43474 12.9296 6.362ZM11.005 8.03726C11.3915 7.96339 11.748 8.00679 12.033 8.14976C12.1613 8.21411 12.2941 8.28297 12.4302 8.35556C13.1802 8.75544 14.0314 9.00055 14.923 9.00055H17.0712C17.9628 9.00055 18.814 8.75544 19.564 8.35556C19.7001 8.28297 19.8329 8.21411 19.9612 8.14976C20.2462 8.00679 20.6027 7.96339 20.9892 8.03726L22.6415 8.35301C23.2448 8.4683 23.763 8.85688 24.0409 9.40174C25.9733 13.1909 27.2911 16.035 27.7859 18.3577C28.2634 20.5989 27.9561 22.2548 26.6895 23.795C26.5672 23.9438 26.4002 24.0134 26.2017 24.0044C25.9916 23.9948 25.7569 23.8935 25.5802 23.6929C24.7967 22.8037 23.9008 21.7694 23.0231 20.7485C22.0716 19.6416 20.6847 19.0005 19.2218 19.0005H12.7725C11.3095 19.0005 9.9226 19.6416 8.97109 20.7485C8.09338 21.7694 7.19747 22.8037 6.41401 23.6929C6.23731 23.8935 6.00256 23.9948 5.79255 24.0044C5.594 24.0134 5.427 23.9438 5.30467 23.795C4.03813 22.2548 3.73078 20.5989 4.20829 18.3577C4.70314 16.035 6.02093 13.1909 7.9533 9.40174C8.23117 8.85688 8.74943 8.4683 9.3527 8.35301L11.005 8.03726ZM16.001 13.9997C16.8294 13.9997 17.501 13.3281 17.501 12.4997C17.501 11.6713 16.8294 10.9997 16.001 10.9997C15.1726 10.9997 14.501 11.6713 14.501 12.4997C14.501 13.3281 15.1726 13.9997 16.001 13.9997Z" fill="#212121"/>
</svg>

<svg xmlns="http://www.w3.org/2000/svg" width="32" height="32"><path d="M12.93 6.362c-.743-.372-1.558-.431-2.3-.29l-1.653.317a3.993 3.993 0 0 0-2.805 2.104c-1.914 3.753-3.361 6.827-3.92 9.448-.576 2.703-.225 5.017 1.508 7.124 1.15 1.4 3.127 1.117 4.155-.05a336.08 336.08 0 0 0 2.573-2.963A3.014 3.014 0 0 1 12.773 21h6.449c.877 0 1.71.385 2.284 1.052.88 1.024 1.782 2.065 2.573 2.963 1.028 1.167 3.005 1.45 4.155.05 1.733-2.107 2.084-4.421 1.508-7.124-.559-2.621-2.005-5.695-3.92-9.448a3.993 3.993 0 0 0-2.805-2.104l-1.652-.316c-.743-.142-1.558-.083-2.3.289-.146.073-.293.15-.442.229a3.31 3.31 0 0 1-1.552.41h-2.148a3.31 3.31 0 0 1-1.552-.41c-.149-.08-.296-.156-.441-.229Zm-1.925 1.675c.386-.074.743-.03 1.028.113.128.064.261.133.397.206.75.4 1.601.645 2.493.645h2.148c.892 0 1.743-.246 2.493-.645.136-.073.269-.142.397-.206.285-.143.642-.187 1.028-.113l1.652.316a1.993 1.993 0 0 1 1.4 1.049c1.932 3.789 3.25 6.633 3.745 8.956.477 2.24.17 3.897-1.097 5.437a.57.57 0 0 1-.487.21.9.9 0 0 1-.622-.312c-.783-.89-1.68-1.924-2.557-2.945A5.014 5.014 0 0 0 19.222 19h-6.45c-1.463 0-2.85.642-3.8 1.748a333.3 333.3 0 0 1-2.558 2.945.9.9 0 0 1-.621.311.57.57 0 0 1-.488-.209c-1.267-1.54-1.574-3.196-1.097-5.437.495-2.323 1.813-5.167 3.745-8.956a1.993 1.993 0 0 1 1.4-1.049l1.652-.316ZM16.001 14a1.5 1.5 0 1 0 0-3 1.5 1.5 0 0 0 0 3Z"/></svg>
